images/icon/sidebar_order.svg

<svg width="30" height="30" viewBox="0 0 30 30" fill="none" xmlns="http://www.w3.org/2000/svg">
<path d="M14.6317 15.4001C10.9347 15.4001 7.93164 12.397 7.93164 8.70004C7.93164 5.00305 10.9347 2 14.6317 2C18.3287 2 21.3317 5.00305 21.3317 8.70004C21.3317 12.397 18.3287 15.4001 14.6317 15.4001Z" stroke="#544545" stroke-width="1.2" stroke-miterlimit="10"/>
<path d="M14.6317 12.8721C13.2677 12.8721 12.155 11.8671 12.155 10.6347C12.155 10.3595 12.3824 10.1442 12.6456 10.1442C12.9088 10.1442 13.1361 10.3715 13.1361 10.6347C13.1361 11.3167 13.8061 11.879 14.6197 11.879C15.4333 11.879 16.1033 11.3287 16.1033 10.6347C16.1033 9.95276 15.4333 9.39044 14.6197 9.39044C13.2558 9.39044 12.1431 8.38543 12.1431 7.1531C12.1431 5.92078 13.2558 4.91577 14.6197 4.91577C15.9836 4.91577 17.0963 5.92078 17.0963 7.1531C17.0963 7.42828 16.869 7.64364 16.6058 7.64364C16.3306 7.64364 16.1152 7.41632 16.1152 7.1531C16.1152 6.47114 15.4452 5.90881 14.6317 5.90881C13.8181 5.90881 13.1481 6.45917 13.1481 7.1531C13.1481 7.83507 13.8181 8.3974 14.6317 8.3974C15.9956 8.3974 17.1083 9.4024 17.1083 10.6347C17.1202 11.8671 16.0076 12.8721 14.6317 12.8721Z" fill="#E60000" stroke="#E60000" stroke-width="0.1"/>
<path d="M14.6317 5.92065C14.3565 5.92065 14.1411 5.69333 14.1411 5.43011V4.43707C14.1411 4.16189 14.3684 3.94653 14.6317 3.94653C14.9068 3.94653 15.1222 4.17386 15.1222 4.43707V5.43011C15.1342 5.69333 14.9068 5.92065 14.6317 5.92065Z" fill="#E60000" stroke="#E60000" stroke-width="0.1"/>
<path d="M14.6317 13.8652C14.3565 13.8652 14.1411 13.6379 14.1411 13.3747V12.3697C14.1411 12.0945 14.3684 11.8792 14.6317 11.8792C14.9068 11.8792 15.1222 12.1065 15.1222 12.3697V13.3627C15.1342 13.6379 14.9068 13.8652 14.6317 13.8652Z" fill="#E60000" stroke="#E60000" stroke-width="0.1"/>
<path d="M14.6319 29C14.3687 29 14.1533 28.7846 14.1533 28.5214V15.8392C14.1533 15.576 14.3687 15.3606 14.6319 15.3606C14.8951 15.3606 15.1105 15.576 15.1105 15.8392V28.5214C15.1105 28.7846 14.8951 29 14.6319 29Z" fill="#544545" stroke="#544545" stroke-width="0.15"/>
<path d="M14.632 29C14.5841 29 14.5363 28.9881 14.5004 28.9761C11.2581 27.66 8.6259 25.3988 6.86714 22.4316C6.77143 22.2641 6.81928 22.0487 6.98679 21.9411C7.15429 21.8453 7.36964 21.8932 7.47732 22.0607C9.1284 24.8484 11.605 26.99 14.632 28.2582C17.659 26.99 20.1356 24.8604 21.7867 22.0607C21.8824 21.8932 22.1097 21.8334 22.2772 21.9411C22.4447 22.0368 22.5045 22.2641 22.3969 22.4316C20.6381 25.3988 17.994 27.66 14.7636 28.9761C14.7277 28.9881 14.6799 29 14.632 29Z" fill="#544545" stroke="#544545" stroke-width="0.4"/>
<path d="M19.1905 27.9352C18.5324 27.9352 17.8265 27.8395 17.0967 27.672C16.9532 27.6361 16.8455 27.5165 16.8215 27.3729C16.2233 22.3838 18.5085 21.1275 20.5305 20.0148C21.8107 19.3089 22.9114 18.7107 23.1626 17.2152C23.1866 17.0596 23.3182 16.94 23.4857 16.916C23.6412 16.9041 23.7968 16.9998 23.8566 17.1434C23.8805 17.2271 24.5864 19.1893 24.5864 22.2402C24.5864 23.8554 24.1078 25.2552 23.2105 26.2722C22.2534 27.3609 20.8655 27.9352 19.1905 27.9352ZM17.5035 27.0379C18.0898 27.1695 18.6641 27.2293 19.1905 27.2293C22.6482 27.2293 23.8805 24.657 23.8805 22.2521C23.8805 20.637 23.6771 19.3328 23.4857 18.4834C22.9114 19.5243 21.8825 20.0866 20.8894 20.637C19.011 21.6659 17.0728 22.7307 17.5035 27.0379Z" fill="#544545" stroke="#544545" stroke-width="0.3"/>
<path d="M10.0732 27.9352C8.41012 27.9352 7.01029 27.3609 6.05315 26.2721C5.15582 25.2552 4.67725 23.8673 4.67725 22.2401C4.67725 19.1892 5.38314 17.2271 5.40707 17.1433C5.46689 16.9878 5.61047 16.8921 5.77797 16.916C5.9335 16.928 6.06511 17.0476 6.101 17.2151C6.35225 18.7107 7.45297 19.3089 8.73316 20.0148C10.7551 21.1275 13.0403 22.3837 12.4421 27.3728C12.4301 27.5164 12.3225 27.6361 12.1669 27.672C11.4371 27.8514 10.7312 27.9352 10.0732 27.9352ZM5.78993 18.4714C5.5985 19.3208 5.39511 20.625 5.39511 22.2401C5.39511 24.645 6.62743 27.2173 10.0851 27.2173C10.6116 27.2173 11.1739 27.1575 11.7721 27.0259C12.2148 22.7187 10.2766 21.6539 8.39816 20.625C7.39315 20.0866 6.36422 19.5123 5.78993 18.4714Z" fill="#544545" stroke="#544545" stroke-width="0.3"/>
<path d="M6.53692 4.79568C6.45317 4.79568 6.36942 4.77175 6.29763 4.73586L4.63459 3.77871C4.40726 3.6471 4.32351 3.35996 4.45512 3.12067C4.58673 2.89335 4.87387 2.8096 5.11316 2.9412L6.7762 3.89835C7.00353 4.02996 7.08728 4.31711 6.95567 4.55639C6.85995 4.71193 6.70442 4.79568 6.53692 4.79568Z" fill="#544545" stroke="#544545" stroke-width="0.12"/>
<path d="M3.11383 9.109C2.85061 9.109 2.63525 8.89365 2.63525 8.63043C2.63525 8.36721 2.85061 8.15186 3.11383 8.15186H5.02812C5.29134 8.15186 5.5067 8.36721 5.5067 8.63043C5.5067 8.89365 5.29134 9.109 5.02812 9.109H3.11383Z" fill="#544545" stroke="#544545" stroke-width="0.12"/>
<path d="M4.87647 14.822C4.70897 14.822 4.55343 14.7382 4.45772 14.5827C4.32611 14.3553 4.3979 14.0562 4.63718 13.9246L6.30023 12.9675C6.52755 12.8359 6.82666 12.9077 6.95827 13.1469C7.08987 13.3743 7.01809 13.6734 6.7788 13.805L5.11576 14.7621C5.03201 14.798 4.94826 14.822 4.87647 14.822Z" fill="#544545" stroke="#544545" stroke-width="0.12"/>
<path d="M22.4558 4.79568C22.5395 4.79568 22.6233 4.77175 22.695 4.73586L24.3581 3.77871C24.5854 3.6471 24.6692 3.35996 24.5376 3.12067C24.4059 2.89335 24.1188 2.8096 23.8795 2.9412L22.2165 3.89835C21.9891 4.02996 21.9054 4.31711 22.037 4.55639C22.1327 4.71193 22.2883 4.79568 22.4558 4.79568Z" fill="#544545" stroke="#544545" stroke-width="0.12"/>
<path d="M25.8788 9.109C26.1421 9.109 26.3574 8.89365 26.3574 8.63043C26.3574 8.36721 26.1421 8.15186 25.8788 8.15186H23.9646C23.7013 8.15186 23.486 8.36721 23.486 8.63043C23.486 8.89365 23.7013 9.109 23.9646 9.109H25.8788Z" fill="#544545" stroke="#544545" stroke-width="0.12"/>
<path d="M24.1162 14.822C24.2837 14.822 24.4392 14.7382 24.535 14.5827C24.6666 14.3553 24.5948 14.0562 24.3555 13.9246L22.6924 12.9675C22.4651 12.8359 22.166 12.9077 22.0344 13.1469C21.9028 13.3743 21.9746 13.6734 22.2139 13.805L23.8769 14.7621C23.9607 14.798 24.0444 14.822 24.1162 14.822Z" fill="#544545" stroke="#544545" stroke-width="0.12"/>
</svg>

<svg width="30" height="30" fill="none" xmlns="http://www.w3.org/2000/svg"><path d="M14.632 15.4a6.704 6.704 0 01-6.7-6.7c0-3.697 3.003-6.7 6.7-6.7s6.7 3.003 6.7 6.7-3.003 6.7-6.7 6.7z" stroke="#544545" stroke-width="1.2" stroke-miterlimit="10"/><path d="M14.632 12.872c-1.364 0-2.477-1.005-2.477-2.237 0-.275.227-.49.49-.49a.5.5 0 01.491.49c0 .682.67 1.244 1.484 1.244.813 0 1.483-.55 1.483-1.244 0-.682-.67-1.245-1.483-1.245-1.364 0-2.477-1.005-2.477-2.237 0-1.232 1.113-2.237 2.477-2.237 1.364 0 2.476 1.005 2.476 2.237 0 .275-.227.49-.49.49a.493.493 0 01-.49-.49c0-.682-.67-1.244-1.484-1.244s-1.484.55-1.484 1.244c0 .682.67 1.244 1.484 1.244 1.364 0 2.476 1.005 2.476 2.238.012 1.232-1.1 2.237-2.476 2.237z" fill="#E60000" stroke="#E60000" stroke-width=".1"/><path d="M14.632 5.92a.493.493 0 01-.49-.49v-.993c0-.275.226-.49.49-.49.275 0 .49.227.49.49v.993a.485.485 0 01-.49.49zm0 7.945a.493.493 0 01-.49-.49V12.37c0-.275.226-.49.49-.49.275 0 .49.226.49.49v.993a.488.488 0 01-.49.502z" fill="#E60000" stroke="#E60000" stroke-width=".1"/><path d="M14.632 29a.48.48 0 01-.479-.479V15.84a.48.48 0 01.479-.478.48.48 0 01.479.478v12.682a.48.48 0 01-.48.479z" fill="#544545" stroke="#544545" stroke-width=".15"/><path d="M14.632 29a.429.429 0 01-.132-.024c-3.242-1.316-5.874-3.577-7.633-6.544a.365.365 0 01.12-.49.365.365 0 01.49.119c1.651 2.787 4.128 4.929 7.155 6.197 3.027-1.268 5.504-3.398 7.155-6.197a.352.352 0 01.49-.12.352.352 0 01.12.49c-1.759 2.968-4.403 5.229-7.633 6.545a.429.429 0 01-.132.024z" fill="#544545" stroke="#544545" stroke-width=".4"/><path d="M19.19 27.935a9.46 9.46 0 01-2.093-.263.372.372 0 01-.276-.3c-.598-4.988 1.688-6.244 3.71-7.357 1.28-.706 2.38-1.304 2.632-2.8a.37.37 0 01.323-.299.38.38 0 01.37.227c.024.084.73 2.046.73 5.097 0 1.615-.478 3.015-1.375 4.032-.958 1.089-2.345 1.663-4.02 1.663zm-1.687-.897a7.809 7.809 0 001.688.191c3.457 0 4.69-2.572 4.69-4.977 0-1.615-.204-2.92-.395-3.769-.575 1.041-1.604 1.604-2.597 2.154-1.878 1.029-3.816 2.094-3.386 6.4zm-7.43.897c-1.663 0-3.063-.574-4.02-1.663-.897-1.017-1.376-2.405-1.376-4.032 0-3.05.706-5.013.73-5.097a.34.34 0 01.371-.227.367.367 0 01.323.3c.251 1.495 1.352 2.093 2.632 2.799 2.022 1.113 4.307 2.369 3.71 7.358a.342.342 0 01-.276.299c-.73.18-1.436.263-2.094.263zM5.79 18.471a17.36 17.36 0 00-.395 3.77c0 2.404 1.232 4.976 4.69 4.976.527 0 1.089-.06 1.687-.191.443-4.307-1.495-5.372-3.374-6.401-1.005-.538-2.034-1.113-2.608-2.154z" fill="#544545" stroke="#544545" stroke-width=".3"/><path d="M6.537 4.796a.545.545 0 01-.24-.06l-1.662-.957a.484.484 0 01-.18-.658.484.484 0 01.658-.18l1.663.957a.484.484 0 01.18.658.486.486 0 01-.42.24zM3.114 9.109a.48.48 0 01-.479-.479.48.48 0 01.479-.478h1.914a.48.48 0 01.479.478.48.48 0 01-.479.479H3.114zm1.762 5.713a.486.486 0 01-.418-.24.477.477 0 01.18-.657l1.662-.958a.477.477 0 01.658.18.477.477 0 01-.18.658l-1.662.957a.639.639 0 01-.24.06zm17.58-10.026a.544.544 0 00.239-.06l1.663-.957a.484.484 0 00.18-.658.484.484 0 00-.659-.18l-1.663.957a.484.484 0 00-.179.658c.096.156.251.24.419.24zm3.423 4.313a.48.48 0 00.478-.479.48.48 0 00-.478-.478h-1.914a.48.48 0 00-.479.478.48.48 0 00.479.479h1.914zm-1.763 5.713a.486.486 0 00.419-.24.477.477 0 00-.18-.657l-1.663-.958a.477.477 0 00-.658.18.477.477 0 00.18.658l1.663.957a.64.64 0 00.24.06z" fill="#544545" stroke="#544545" stroke-width=".12"/></svg>
